X: 28133
T: Mrs Crehan's
R: reel
M: 4/4
K: Gmajor
G2dG eGdG|G2dG AdBA|G2dG eGdG|EGAB cedB|
G2dG eGdG|G2dG AdBA|G2dG eGdG|EGAB cege||
d2 (3Bcd Gd (3Bcd|GdBd eAA2|d2 Bd GdBd|ecAc BGG2|
d2Bd G2BG|G2BG AEE2|GABc dedc|BdAd BGGF||

